X: 14991
T: Gentle Dentist, The
R: reel
M: 4/4
K: Gmajor
|:DG~G2 GBdg|ecAG (3FGF DG|DG~G2 GBdg|ecAF ~G3G:|
|:AF~F2 ~A3z|bg~g2 bgdg|(3efe cd eg~g2|dzBA BG~G2:|

